X: 36755
T: Sheila's
R: jig
M: 6/8
K: Dmajor
DFD ~E3|DFE EDB,|DFD DEE|Ddf ded|
DFD ~E3|DFE EDB,|A,de ~f3|dAF D3:|
|:Bde eff|Ace dAF|Bde efA|Ace cdc|
Bge efA|Ace dAF|Bde efd|dAF E3:|

